la/hands-solid.svg

<svg xmlns="http://www.w3.org/2000/svg" viewBox="0 0 32 32" height="1em" width="1em">
  <path d="M 3 5 L 3 16.40625 L 3.28125 16.71875 L 9 22.4375 L 9 28 L 15 28 L 15 22.03125 L 15 22 C 15.004 21.945 15.1455 18.8445 12.5625 17.1875 C 12.5545 17.1835 12.5705 17.16025 12.5625 17.15625 C 12.5545 17.15225 12.53925 17.16025 12.53125 17.15625 C 11.34725 16.38325 10.12525 15.75075 9.28125 15.09375 C 8.43025 14.43475 8 13.887 8 13 L 6 13 C 6 14.617 6.94525 15.8435 8.03125 16.6875 C 9.11725 17.5315 10.3795 18.15275 11.4375 18.84375 L 11.46875 18.84375 C 13.07075 19.84775 13 21.96875 13 21.96875 L 13 26 L 11 26 L 11 21.59375 L 10.71875 21.28125 L 5 15.5625 L 5 5 L 3 5 z M 27 5 L 27 15.5625 L 21.28125 21.28125 L 21 21.59375 L 21 26 L 19 26 L 19 21.9375 C 19 21.9375 18.93025 19.84775 20.53125 18.84375 L 20.5625 18.84375 C 21.6175 18.15275 22.88275 17.5305 23.96875 16.6875 C 25.05475 15.8445 26 14.617 26 13 L 24 13 C 24 13.887 23.56975 14.43375 22.71875 15.09375 C 21.87475 15.74975 20.65275 16.38225 19.46875 17.15625 C 19.46075 17.16025 19.4455 17.15225 19.4375 17.15625 L 19.4375 17.1875 C 16.8745 18.8275 16.996 21.895 17 22 L 17 22.0625 L 17 28 L 23 28 L 23 22.4375 L 28.71875 16.71875 L 29 16.40625 L 29 5 L 27 5 z"/>
</svg>

<svg xmlns="http://www.w3.org/2000/svg" viewBox="0 0 32 32" height="1em" width="1em">
  <path d="M3 5v11.406l.281.313L9 22.437V28h6v-6c.004-.055.146-3.155-2.438-4.813-.007-.004.008-.027 0-.03-.007-.005-.023.003-.03 0-1.185-.774-2.407-1.406-3.25-2.063C8.43 14.434 8 13.887 8 13H6c0 1.617.945 2.844 2.031 3.688 1.086.844 2.348 1.465 3.406 2.156h.032C13.07 19.848 13 21.969 13 21.969V26h-2v-4.406l-.281-.313L5 15.563V5H3zm24 0v10.563l-5.719 5.718-.281.313V26h-2v-4.063s-.07-2.09 1.531-3.093h.032c1.055-.691 2.32-1.314 3.406-2.157C25.055 15.845 26 14.617 26 13h-2c0 .887-.43 1.434-1.281 2.094-.844.656-2.066 1.288-3.25 2.062-.008.004-.024-.004-.032 0v.032C16.875 18.828 16.997 21.895 17 22v6h6v-5.563l5.719-5.718.281-.313V5h-2z"/>
</svg>
